!!!SOCIAL_FUNCTION:	songs of the sun dance
!!!PDT:	1936
!!!OTL: No_47_Willow-Dance_Song.krn
!!!REG: Oklahoma and Montana
!!!LANG: Tone
!!!LING_GROUP: Algonquin
**kern
*staff1
=1-
=
*clefF4
*k[b-e-a-d-]
*M2/4
8f\L
8c\J
4c\
=2
4f\
4f\
=3
8f\L
8c\J
4c\
=4
8c\L
8Bn\J
8c\L
8An\J
=5
8c\L
8c\J
4c\
=6
8c\L
8An\J
8c\L
8A\J
=7
8c\L
8Bn\J
4c\
=8
8c\L
8c\J
4c\
=9
16c\LK
[8.A-\J
4A-\]
=10
4A-\
8A-\L
8F\J
=11
4A-\
4A-\
=12
8A-\L
8F\J
4F\
=13
4F\
8F\
8r
=14
4A-\
4A-\
=15
8A-\L
8F\J
4F\
=16
4F\
8F/L
8C/J
=17
4F\
4F\
=18
8A-\L
8F\J
8F\
8r
=19
4F\
4F\
=20
8F/L
8C/J
8F\
8r
==:|!
*-
